;FLAVOR:Marlin
;TIME:196
;Filament used: 0m, 0m, 0m, 0.181123m
;Layer height: 0.2
;MINX:170.246
;MINY:120.246
;MINZ:0.16
;MAXX:229.757
;MAXY:179.754
;MAXZ:0.16
;TARGET_MACHINE.NAME:Proforge 4
;POSTPROCESSED
;  [CameraShadowPass]
;Generated with Cura_SteamEngine 5.11.0
T3
M104 S215
;----------ProForge 4 Start G-code----------
START_PRINT BED_TEMP=50 MESH=default
;----------ProForge 4 Start G-code----------
M82 ;absolute extrusion mode
G92 E0
; Heat this tool to its print temp and wait
SELECT_T3
M109 S215.0 T3
G92 E0
G1 F6000 E-0.6
;LAYER_COUNT:1
;LAYER:0
M107
M204 S6000
;MESH:one_layer_annular_disc_60OD_12ID_0p20H.stl
G0 X201.495 Y157.055 Z0.16
M204 S4000
;TYPE:WALL-INNER
G1 F6000 E0
G1 F1800 X200.905 Y157.156 E0.01927
G1 X200.504 Y157.194 E0.03224
G1 X200.148 Y157.206 E0.04371
G1 X199.755 Y157.206 E0.05636
G1 X199.208 Y157.166 E0.07402
G1 X198.788 Y157.106 E0.08768
G1 X198.457 Y157.042 E0.09853
G1 X198.094 Y156.954 E0.11056
G1 X197.66 Y156.82 E0.12518
G1 X197.331 Y156.695 E0.13651
G1 X196.978 Y156.547 E0.14884
G1 X196.515 Y156.315 E0.16551
G1 X196.095 Y156.061 E0.18131
G1 X195.627 Y155.735 E0.19968
G1 X195.235 Y155.413 E0.21601
G1 X195.032 Y155.228 E0.22485
G1 X194.704 Y154.896 E0.23988
G1 X194.382 Y154.521 E0.25579
G1 X194.064 Y154.093 E0.27296
G1 X193.934 Y153.9 E0.28045
G1 X193.649 Y153.418 E0.29848
G1 X193.408 Y152.925 E0.31615
G1 X193.272 Y152.597 E0.32758
G1 X193.085 Y152.053 E0.3461
G1 X192.941 Y151.487 E0.3649
G1 X192.841 Y150.883 E0.38461
G1 X192.807 Y150.519 E0.39638
G1 X192.79 Y150.189 E0.40702
G1 X192.79 Y149.759 E0.42087
G1 X192.839 Y149.135 E0.44102
G1 X192.891 Y148.784 E0.45244
G1 X192.943 Y148.51 E0.46142
G1 X193.031 Y148.142 E0.4736
G1 X193.168 Y147.687 E0.4889
G1 X193.303 Y147.323 E0.5014
G1 X193.434 Y147.018 E0.51209
G1 X193.685 Y146.516 E0.53016
G1 X193.934 Y146.096 E0.54588
G1 X194.304 Y145.576 E0.56643
G1 X194.756 Y145.044 E0.5889
G1 X195.087 Y144.719 E0.60384
G1 X195.448 Y144.407 E0.6192
G1 X195.887 Y144.072 E0.63698
G1 X196.1 Y143.934 E0.64515
G1 X196.547 Y143.667 E0.66191
G1 X197.097 Y143.397 E0.68164
G1 X197.395 Y143.272 E0.69204
G1 X197.906 Y143.096 E0.70944
G1 X198.502 Y142.941 E0.72927
G1 X199.134 Y142.839 E0.74988
G1 X199.477 Y142.807 E0.76097
G1 X199.808 Y142.79 E0.77164
G1 X200.237 Y142.79 E0.78546
G1 X200.817 Y142.833 E0.80418
G1 X201.209 Y142.89 E0.81693
G1 X201.528 Y142.951 E0.82739
G1 X201.891 Y143.043 E0.83945
G1 X202.313 Y143.168 E0.85362
G1 X202.679 Y143.307 E0.86622
G1 X203.018 Y143.453 E0.87811
G1 X203.504 Y143.698 E0.89563
G1 X203.901 Y143.935 E0.91051
G1 X204.396 Y144.285 E0.93003
G1 X204.93 Y144.735 E0.95252
G1 X205.282 Y145.093 E0.96868
G1 X205.598 Y145.454 E0.98413
G1 X205.906 Y145.862 E1.00059
G1 X206.066 Y146.1 E1.00982
G1 X206.345 Y146.578 E1.02764
G1 X206.585 Y147.064 E1.04509
G1 X206.722 Y147.396 E1.05665
G1 X206.91 Y147.94 E1.07518
G1 X207.055 Y148.51 E1.09412
G1 X207.156 Y149.091 E1.11311
G1 X207.194 Y149.493 E1.12611
G1 X207.206 Y149.812 E1.13638
G1 X207.207 Y150.196 E1.14875
G1 X207.163 Y150.811 E1.1686
G1 X207.106 Y151.209 E1.18154
G1 X207.047 Y151.519 E1.1917
G1 X206.967 Y151.849 E1.20263
G1 X206.814 Y152.352 E1.21956
G1 X206.723 Y152.598 E1.22801
G1 X206.565 Y152.98 E1.24132
G1 X206.326 Y153.461 E1.25861
G1 X206.083 Y153.868 E1.27387
G1 X205.736 Y154.367 E1.29344
G1 X205.416 Y154.758 E1.30971
G1 X205.228 Y154.964 E1.31868
G1 X204.902 Y155.286 E1.33344
G1 X204.525 Y155.615 E1.34955
G1 X204.134 Y155.906 E1.36524
G1 X203.9 Y156.066 E1.37437
G1 X203.453 Y156.329 E1.39106
G1 X202.929 Y156.586 E1.40985
G1 X202.598 Y156.725 E1.42141
G1 X202.056 Y156.91 E1.43985
G1 X201.495 Y157.055 E1.45851
M204 S6000
G0 F6000 X201.362 Y156.589
M204 S4000
G1 F1800 X200.83 Y156.678 E1.47587
G1 X200.506 Y156.709 E1.48635
G1 X200.148 Y156.722 E1.49789
G1 X199.746 Y156.721 E1.51083
G1 X199.231 Y156.682 E1.52746
G1 X198.877 Y156.63 E1.53898
G1 X198.569 Y156.571 E1.54907
G1 X198.236 Y156.491 E1.5601
G1 X197.812 Y156.36 E1.57439
G1 X197.195 Y156.114 E1.59577
G1 X196.726 Y155.879 E1.61266
G1 X196.336 Y155.64 E1.62739
G1 X195.896 Y155.332 E1.64468
G1 X195.559 Y155.053 E1.65877
G1 X195.374 Y154.886 E1.66679
G1 X195.07 Y154.579 E1.6807
G1 X194.758 Y154.215 E1.69614
G1 X194.48 Y153.844 E1.71106
G1 X194.341 Y153.638 E1.71906
G1 X194.084 Y153.205 E1.73527
G1 X193.841 Y152.707 E1.75311
G1 X193.724 Y152.425 E1.76294
G1 X193.548 Y151.914 E1.78034
G1 X193.405 Y151.342 E1.79933
G1 X193.322 Y150.828 E1.81609
G1 X193.29 Y150.494 E1.82689
G1 X193.274 Y150.148 E1.83804
G1 X193.274 Y149.8 E1.84925
G1 X193.314 Y149.241 E1.86729
G1 X193.366 Y148.875 E1.87919
G1 X193.425 Y148.57 E1.8892
G1 X193.505 Y148.246 E1.89994
G1 X193.634 Y147.821 E1.91424
G1 X193.748 Y147.513 E1.92481
G1 X193.886 Y147.195 E1.93597
G1 X194.132 Y146.707 E1.95357
G1 X194.354 Y146.338 E1.96743
G1 X194.668 Y145.897 E1.98486
G1 X194.924 Y145.584 E1.99788
G1 X195.114 Y145.37 E2.0071
G1 X195.421 Y145.07 E2.02092
G1 X195.757 Y144.78 E2.03521
G1 X196.182 Y144.457 E2.05239
G1 X196.793 Y144.085 E2.07542
G1 X197.285 Y143.843 E2.09308
G1 X197.567 Y143.724 E2.10293
G1 X198.111 Y143.54 E2.12142
G1 X198.634 Y143.407 E2.13879
G1 X199.181 Y143.321 E2.15662
G1 X199.502 Y143.29 E2.167
G1 X199.848 Y143.274 E2.17816
G1 X200.25 Y143.275 E2.1911
G1 X200.763 Y143.314 E2.20766
G1 X201.119 Y143.366 E2.21925
G1 X201.437 Y143.427 E2.22967
G1 X201.754 Y143.507 E2.2402
G1 X202.185 Y143.636 E2.25468
G1 X202.777 Y143.874 E2.27522
G1 X203.269 Y144.121 E2.29295
G1 X203.622 Y144.331 E2.30617
G1 X204.118 Y144.683 E2.32575
G1 X204.427 Y144.937 E2.33863
G1 X204.626 Y145.114 E2.34721
G1 X204.918 Y145.412 E2.36064
G1 X205.223 Y145.76 E2.37554
G1 X205.533 Y146.173 E2.39216
G1 X205.674 Y146.387 E2.40042
G1 X205.911 Y146.793 E2.41555
G1 X206.156 Y147.291 E2.43342
G1 X206.269 Y147.565 E2.44296
G1 X206.447 Y148.08 E2.46051
G1 X206.584 Y148.62 E2.47844
G1 X206.679 Y149.181 E2.49676
G1 X206.71 Y149.512 E2.50746
G1 X206.723 Y150.196 E2.52949
G1 X206.682 Y150.756 E2.54757
G1 X206.63 Y151.119 E2.55937
G1 X206.57 Y151.432 E2.56964
G1 X206.499 Y151.726 E2.57937
G1 X206.375 Y152.142 E2.59335
G1 X206.125 Y152.779 E2.61538
G1 X205.864 Y153.295 E2.634
G1 X205.64 Y153.66 E2.64779
G1 X205.319 Y154.116 E2.66574
G1 X205.056 Y154.434 E2.67903
G1 X204.886 Y154.622 E2.68719
G1 X204.583 Y154.922 E2.70091
G1 X204.24 Y155.223 E2.71561
G1 X203.638 Y155.659 E2.73954
G1 X203.205 Y155.912 E2.75568
G1 X202.729 Y156.146 E2.77276
G1 X202.407 Y156.279 E2.78398
G1 X201.916 Y156.447 E2.80069
G1 X201.362 Y156.589 E2.8191
M204 S6000
G0 F6000 X201.394 Y156.789
G0 X202.817 Y178.651
M204 S4000
G1 F1800 X203.76 Y178.54 E2.84967
G1 X204.696 Y178.401 E2.88013
G1 X205.739 Y178.214 E2.91425
G1 X207 Y177.921 E2.95593
G1 X207.901 Y177.683 E2.98593
G1 X208.809 Y177.407 E3.01649
G1 X209.704 Y177.104 E3.04691
G1 X210.583 Y176.774 E3.07714
G1 X211.441 Y176.418 E3.10705
G1 X212.394 Y175.985 E3.14075
G1 X213.577 Y175.382 E3.1835
G1 X214.472 Y174.889 E3.2164
G1 X215.197 Y174.446 E3.24375
G1 X215.988 Y173.937 E3.27403
G1 X216.771 Y173.395 E3.30469
G1 X217.531 Y172.832 E3.33515
G1 X217.889 Y172.554 E3.34974
G1 X218.628 Y171.949 E3.38049
G1 X219.678 Y171.014 E3.42575
G1 X220.359 Y170.353 E3.45631
G1 X221.334 Y169.332 E3.50176
G1 X221.948 Y168.63 E3.53179
G1 X222.5 Y167.955 E3.55986
G1 X223.125 Y167.145 E3.5928
G1 X223.673 Y166.382 E3.62305
G1 X224.445 Y165.198 E3.66855
G1 X224.886 Y164.471 E3.69593
G1 X225.39 Y163.568 E3.72922
G1 X225.981 Y162.396 E3.77148
G1 X226.418 Y161.441 E3.8053
G1 X226.942 Y160.141 E3.85042
G1 X227.303 Y159.136 E3.8848
G1 X227.684 Y157.899 E3.92648
G1 X227.922 Y156.998 E3.95648
G1 X228.14 Y156.075 E3.98701
G1 X228.406 Y154.677 E4.03283
G1 X228.544 Y153.75 E4.06301
G1 X228.651 Y152.818 E4.09321
G1 X228.74 Y151.712 E4.12893
G1 X228.774 Y150.939 E4.15385
G1 X228.789 Y149.987 E4.1845
G1 X228.786 Y149.529 E4.19925
G1 X228.755 Y148.585 E4.22965
G1 X228.651 Y147.168 E4.2754
G1 X228.54 Y146.237 E4.30559
G1 X228.401 Y145.301 E4.33605
G1 X228.214 Y144.26 E4.3701
G1 X227.921 Y142.995 E4.41191
G1 X227.683 Y142.095 E4.44188
G1 X227.408 Y141.187 E4.47243
G1 X227.104 Y140.295 E4.50277
G1 X226.774 Y139.412 E4.53312
G1 X226.414 Y138.544 E4.56337
G1 X225.985 Y137.606 E4.59658
G1 X225.383 Y136.42 E4.6394
G1 X224.889 Y135.528 E4.67223
G1 X224.446 Y134.798 E4.69972
G1 X223.937 Y134.008 E4.72998
G1 X223.395 Y133.225 E4.76064
G1 X222.833 Y132.466 E4.79104
G1 X222.55 Y132.104 E4.80584
G1 X221.949 Y131.367 E4.83646
G1 X221.324 Y130.658 E4.86689
G1 X221.017 Y130.324 E4.88149
G1 X220.352 Y129.64 E4.91221
G1 X219.672 Y128.979 E4.94274
G1 X219.335 Y128.669 E4.95748
G1 X218.628 Y128.051 E4.98771
G1 X217.953 Y127.495 E5.01587
G1 X217.145 Y126.871 E5.04874
G1 X216.383 Y126.324 E5.07894
G1 X215.198 Y125.551 E5.12449
G1 X214.472 Y125.111 E5.15182
G1 X213.576 Y124.613 E5.18482
G1 X212.396 Y124.016 E5.2274
G1 X211.441 Y123.582 E5.26117
G1 X210.577 Y123.223 E5.2913
G1 X210.14 Y123.054 E5.30638
G1 X209.138 Y122.693 E5.34067
G1 X207.899 Y122.316 E5.38237
G1 X207.001 Y122.076 E5.4123
G1 X205.739 Y121.79 E5.45396
G1 X204.692 Y121.594 E5.48825
G1 X203.762 Y121.456 E5.51852
G1 X202.817 Y121.349 E5.54914
G1 X201.717 Y121.257 E5.58468
G1 X200.463 Y121.214 E5.62508
G1 X199.532 Y121.214 E5.65505
G1 X198.591 Y121.245 E5.68536
G1 X197.814 Y121.295 E5.71043
G1 X197.18 Y121.349 E5.73092
G1 X196.234 Y121.456 E5.76157
G1 X195.301 Y121.595 E5.79194
G1 X194.26 Y121.782 E5.82599
G1 X192.998 Y122.075 E5.8677
G1 X192.097 Y122.316 E5.89773
G1 X191.185 Y122.593 E5.92842
G1 X190.295 Y122.892 E5.95865
G1 X189.415 Y123.225 E5.98894
G1 X188.554 Y123.583 E6.01896
G1 X187.604 Y124.012 E6.05252
G1 X186.42 Y124.614 E6.09529
G1 X185.528 Y125.108 E6.12811
G1 X184.798 Y125.55 E6.15559
G1 X184.008 Y126.059 E6.18585
G1 X183.225 Y126.601 E6.21651
G1 X182.465 Y127.164 E6.24696
G1 X182.11 Y127.44 E6.26143
G1 X181.371 Y128.051 E6.29231
G1 X180.658 Y128.672 E6.32275
G1 X179.639 Y129.645 E6.36811
G1 X178.982 Y130.322 E6.39848
G1 X178.671 Y130.662 E6.41332
G1 X178.05 Y131.373 E6.44371
G1 X177.495 Y132.043 E6.47172
G1 X176.871 Y132.855 E6.50469
G1 X176.322 Y133.616 E6.5349
G1 X175.552 Y134.796 E6.58027
G1 X175.111 Y135.529 E6.60781
G1 X174.605 Y136.428 E6.64102
G1 X174.016 Y137.603 E6.68334
G1 X173.582 Y138.556 E6.71706
G1 X173.22 Y139.427 E6.74742
G1 X173.054 Y139.855 E6.7622
G1 X172.693 Y140.862 E6.79665
G1 X172.316 Y142.098 E6.83825
G1 X172.074 Y142.998 E6.86825
G1 X171.86 Y143.92 E6.89873
G1 X171.59 Y145.318 E6.94457
G1 X171.457 Y146.244 E6.97469
G1 X171.349 Y147.184 E7.00515
G1 X171.257 Y148.28 E7.04056
G1 X171.214 Y149.533 E7.08093
G1 X171.214 Y150.476 E7.11129
G1 X171.245 Y151.405 E7.14122
G1 X171.295 Y152.186 E7.16641
G1 X171.349 Y152.815 E7.18674
G1 X171.457 Y153.752 E7.2171
G1 X171.591 Y154.685 E7.24745
G1 X171.782 Y155.739 E7.28194
G1 X172.074 Y156.998 E7.32355
G1 X172.317 Y157.9 E7.35362
G1 X172.589 Y158.808 E7.38414
G1 X172.888 Y159.692 E7.41419
G1 X173.221 Y160.573 E7.44451
G1 X173.583 Y161.443 E7.47485
G1 X174.013 Y162.398 E7.50857
G1 X174.606 Y163.568 E7.5508
G1 X175.106 Y164.47 E7.584
G1 X175.55 Y165.197 E7.61143
G1 X176.059 Y165.987 E7.64169
G1 X176.596 Y166.762 E7.67204
G1 X177.161 Y167.525 E7.70261
G1 X177.443 Y167.889 E7.71744
G1 X178.051 Y168.629 E7.74827
G1 X178.669 Y169.335 E7.77848
G1 X178.979 Y169.672 E7.79322
G1 X179.64 Y170.352 E7.82375
G1 X180.324 Y171.017 E7.85447
G1 X180.657 Y171.323 E7.86903
G1 X181.372 Y171.949 E7.89962
G1 X182.042 Y172.501 E7.92757
G1 X182.846 Y173.12 E7.96024
G1 X183.615 Y173.67 E7.99068
G1 X184 Y173.93 E8.00564
G1 X184.797 Y174.445 E8.03619
G1 X185.528 Y174.885 E8.06366
G1 X186.42 Y175.383 E8.09655
G1 X187.606 Y175.981 E8.13931
G1 X188.555 Y176.418 E8.17295
G1 X189.853 Y176.942 E8.21802
G1 X190.863 Y177.303 E8.25255
G1 X192.097 Y177.684 E8.29413
G1 X192.994 Y177.92 E8.32399
G1 X194.261 Y178.21 E8.36584
G1 X195.303 Y178.402 E8.39995
G1 X196.236 Y178.54 E8.43032
G1 X197.184 Y178.651 E8.46105
G1 X198.279 Y178.739 E8.49642
G1 X199.535 Y178.786 E8.53688
G1 X200.464 Y178.786 E8.56679
G1 X201.402 Y178.755 E8.59701
G1 X202.817 Y178.651 E8.64269
M204 S6000
G0 F6000 X202.864 Y179.133
M204 S4000
G1 F1800 X203.824 Y179.02 E8.67381
G1 X204.774 Y178.879 E8.70473
G1 X205.837 Y178.688 E8.7395
G1 X207.117 Y178.391 E8.78181
G1 X208.033 Y178.149 E8.81231
G1 X208.957 Y177.868 E8.84341
G1 X209.867 Y177.56 E8.87434
G1 X210.761 Y177.224 E8.90509
G1 X211.634 Y176.862 E8.93551
G1 X212.604 Y176.421 E8.96982
G1 X213.803 Y175.81 E9.01315
G1 X214.715 Y175.307 E9.04668
G1 X215.454 Y174.856 E9.07455
G1 X216.257 Y174.34 E9.10528
G1 X217.053 Y173.789 E9.13645
G1 X217.824 Y173.217 E9.16736
G1 X218.191 Y172.932 E9.18232
G1 X218.942 Y172.318 E9.21355
G1 X220.01 Y171.367 E9.25959
G1 X220.701 Y170.695 E9.29063
G1 X221.693 Y169.657 E9.33685
G1 X222.317 Y168.943 E9.36738
G1 X222.879 Y168.256 E9.39596
G1 X223.513 Y167.434 E9.42938
G1 X224.071 Y166.658 E9.46015
G1 X224.856 Y165.455 E9.5064
G1 X225.304 Y164.714 E9.53428
G1 X225.818 Y163.795 E9.56818
G1 X226.417 Y162.605 E9.61107
G1 X226.862 Y161.634 E9.64546
G1 X227.225 Y160.751 E9.6762
G1 X227.395 Y160.31 E9.69142
G1 X227.763 Y159.29 E9.72633
G1 X228.149 Y158.032 E9.7687
G1 X228.391 Y157.115 E9.79923
G1 X228.613 Y156.176 E9.8303
G1 X228.884 Y154.758 E9.87677
G1 X229.024 Y153.813 E9.90753
G1 X229.133 Y152.865 E9.93825
G1 X229.223 Y151.742 E9.97453
G1 X229.258 Y150.954 E9.99992
G1 X229.273 Y149.989 E10.03099
G1 X229.27 Y149.519 E10.04613
G1 X229.238 Y148.559 E10.07705
G1 X229.133 Y147.122 E10.12344
G1 X229.02 Y146.173 E10.15421
G1 X228.879 Y145.222 E10.18516
G1 X228.688 Y144.163 E10.21981
G1 X228.391 Y142.879 E10.26224
G1 X228.149 Y141.963 E10.29274
G1 X227.868 Y141.039 E10.32384
G1 X227.56 Y140.133 E10.35465
G1 X227.224 Y139.235 E10.38552
G1 X226.858 Y138.35 E10.41635
G1 X226.421 Y137.396 E10.45013
G1 X225.81 Y136.193 E10.49357
G1 X225.307 Y135.285 E10.52699
G1 X224.856 Y134.541 E10.555
G1 X224.34 Y133.74 E10.58568
G1 X223.789 Y132.943 E10.61688
G1 X223.218 Y132.172 E10.64777
G1 X222.928 Y131.802 E10.6629
G1 X222.318 Y131.054 E10.69398
G1 X221.684 Y130.334 E10.72486
G1 X221.265 Y129.884 E10.74466
G1 X220.694 Y129.298 E10.771
G1 X220.004 Y128.628 E10.80197
G1 X219.658 Y128.309 E10.81712
G1 X218.942 Y127.682 E10.84776
G1 X218.255 Y127.116 E10.87642
G1 X217.434 Y126.483 E10.9098
G1 X216.658 Y125.926 E10.94055
G1 X215.455 Y125.14 E10.98682
G1 X214.715 Y124.693 E11.01465
G1 X213.803 Y124.186 E11.04824
G1 X212.605 Y123.579 E11.09148
G1 X211.634 Y123.138 E11.12582
G1 X210.757 Y122.774 E11.15639
G1 X210.309 Y122.601 E11.17185
G1 X209.291 Y122.234 E11.20669
G1 X208.032 Y121.851 E11.24906
G1 X207.117 Y121.606 E11.27956
G1 X205.837 Y121.316 E11.32181
G1 X204.772 Y121.117 E11.35669
G1 X203.825 Y120.976 E11.38752
G1 X202.864 Y120.867 E11.41866
G1 X201.745 Y120.773 E11.45481
G1 X200.471 Y120.73 E11.49585
G1 X199.524 Y120.73 E11.52634
G1 X198.568 Y120.762 E11.55714
G1 X197.668 Y120.821 E11.58618
G1 X197.132 Y120.867 E11.6035
G1 X196.171 Y120.976 E11.63464
G1 X195.222 Y121.117 E11.66553
G1 X194.163 Y121.308 E11.70017
G1 X192.88 Y121.605 E11.74257
G1 X191.964 Y121.851 E11.77311
G1 X191.038 Y122.132 E11.80426
G1 X190.133 Y122.436 E11.835
G1 X189.236 Y122.775 E11.86587
G1 X188.361 Y123.139 E11.89639
G1 X187.395 Y123.575 E11.93051
G1 X186.193 Y124.186 E11.97392
G1 X185.285 Y124.689 E12.00734
G1 X184.542 Y125.14 E12.03532
G1 X183.74 Y125.656 E12.06603
G1 X182.943 Y126.207 E12.09722
G1 X182.172 Y126.779 E12.12813
G1 X181.807 Y127.063 E12.14302
G1 X181.058 Y127.682 E12.1743
G1 X180.334 Y128.312 E12.2052
G1 X179.297 Y129.303 E12.25138
G1 X178.629 Y129.99 E12.28224
G1 X178.31 Y130.34 E12.29748
G1 X177.681 Y131.059 E12.32824
G1 X177.116 Y131.741 E12.35675
G1 X176.483 Y132.566 E12.39023
G1 X175.925 Y133.339 E12.42093
G1 X175.659 Y133.735 E12.43628
G1 X175.141 Y134.54 E12.4671
G1 X174.692 Y135.286 E12.49514
G1 X174.178 Y136.201 E12.52893
G1 X173.58 Y137.394 E12.57189
G1 X173.138 Y138.362 E12.60615
G1 X172.77 Y139.247 E12.63701
G1 X172.601 Y139.686 E12.65216
G1 X172.234 Y140.709 E12.68715
G1 X171.85 Y141.965 E12.72943
G1 X171.605 Y142.881 E12.75996
G1 X171.387 Y143.82 E12.791
G1 X171.113 Y145.237 E12.83746
